X: 4294
T: Flower of Edinburgh
N: Pub: J. Walsh, London, 1748
Z: 2012 John Chambers <jc:trillian.mit.edu>
M: C|
L: 1/8
K: G
%
V: 1
((3GFE) |\
D3E G3A | BGBd {c}B2AG | {G}F3E DEFG | AF dF E2FE |
DEFD G3A | ((3BAG) ((3Bcd) e3g | dBAG E2GA | B2GA G2 :|
|: d2 |\
gfg>a g/a/b ag | fef>g (f/g/a) gf | edef gfed | B2e2 e3 g//f//e/ |
dBAG d2cB | edef g3 (g//a//b/) | cBAG E2GA | B2G2 G2 :|
%
V: 2 clef=bass middle=d
g2 |\
g2g2 g2g2 | g2g2 g2g2 | d2d2 d2d2 | d2d2 d2d2 |
d2d2 g2g2 | g2g2 g2g2 | g2g2 c2d2 | g2g2 g2 :|
|: g2 |\
g2g2 g2g2 | d2d2 d2d2 | e2e2 e2f2 | g2g2 e2f2 |
g2g2 g2g2 | c'2a2 b2g2 | c2c2 c2d2 | g2g2 g2 :|
%%begintext align
The 1st Cu. figure down between the 2d and 3d Cu. .|.
then figure up again the same .|.
cast off and lead thro' the 2d Cu. and cast off .|.
Right hands across with the 3d Cu. lead thro' the 2d Cu. and cast off .|.
Right and Left and foot it :|:
%%endtext

%%sep 1 1 500
%%sep 1 1 500

